status/48/aptdaemon-setup.svg

<?xml version="1.0" encoding="UTF-8" standalone="no"?>
<svg
   xmlns:dc="http://purl.org/dc/elements/1.1/"
   xmlns:cc="http://creativecommons.org/ns#"
   xmlns:rdf="http://www.w3.org/1999/02/22-rdf-syntax-ns#"
   xmlns:svg="http://www.w3.org/2000/svg"
   xmlns="http://www.w3.org/2000/svg"
   xmlns:xlink="http://www.w3.org/1999/xlink"
   version="1.1"
   width="48"
   height="48"
   id="svg4031">
  <defs
     id="defs4033">
    <linearGradient
       x1="71.204407"
       y1="6.2375584"
       x2="71.204407"
       y2="44.340794"
       id="linearGradient3114"
       xlink:href="#linearGradient4011"
       gradientUnits="userSpaceOnUse"
       gradientTransform="matrix(1.054054,0,0,1.054054,-51.611001,-2.7279009)" />
    <linearGradient
       id="linearGradient4011">
      <stop
         id="stop4013"
         style="stop-color:#ffffff;stop-opacity:1"
         offset="0" />
      <stop
         id="stop4015"
         style="stop-color:#ffffff;stop-opacity:0.23529412"
         offset="0.507761" />
      <stop
         id="stop4017"
         style="stop-color:#ffffff;stop-opacity:0.15686275"
         offset="0.83456558" />
      <stop
         id="stop4019"
         style="stop-color:#ffffff;stop-opacity:0.39215687"
         offset="1" />
    </linearGradient>
    <radialGradient
       cx="3.9722471"
       cy="8.4497671"
       r="19.99999"
       fx="3.9722471"
       fy="8.4497671"
       id="radialGradient3117"
       xlink:href="#linearGradient2867-449-88-871-390-598-476-591-434-148-57-177-3-8"
       gradientUnits="userSpaceOnUse"
       gradientTransform="matrix(0,2.4988347,-2.6434689,-6.8014435e-8,46.336814,-12.180468)" />
    <linearGradient
       id="linearGradient2867-449-88-871-390-598-476-591-434-148-57-177-3-8">
      <stop
         id="stop3750-8-9"
         style="stop-color:#90dbec;stop-opacity:1"
         offset="0" />
      <stop
         id="stop3752-3-2"
         style="stop-color:#42baea;stop-opacity:1"
         offset="0.26238" />
      <stop
         id="stop3754-7-2"
         style="stop-color:#3689e6;stop-opacity:1"
         offset="0.704952" />
      <stop
         id="stop3756-9-3"
         style="stop-color:#2b63a0;stop-opacity:1"
         offset="1" />
    </linearGradient>
    <linearGradient
       id="linearGradient3820-7-2-1">
      <stop
         id="stop3822-2-6-3"
         style="stop-color:#3d3d3d;stop-opacity:1"
         offset="0" />
      <stop
         id="stop3864-8-7-7"
         style="stop-color:#686868;stop-opacity:0.49803922"
         offset="0.5" />
      <stop
         id="stop3824-1-2-5"
         style="stop-color:#686868;stop-opacity:0"
         offset="1" />
    </linearGradient>
    <radialGradient
       cx="99.157013"
       cy="186.17059"
       r="62.769119"
       fx="99.157013"
       fy="186.17059"
       id="radialGradient4029"
       xlink:href="#linearGradient3820-7-2-1"
       gradientUnits="userSpaceOnUse"
       gradientTransform="matrix(1,0,0,0.1666667,0,155.14216)" />
    <radialGradient
       cx="6.702713"
       cy="73.615715"
       r="7.228416"
       fx="6.702713"
       fy="73.615715"
       id="radialGradient3026"
       xlink:href="#linearGradient10691"
       gradientUnits="userSpaceOnUse"
       gradientTransform="matrix(1.6600963,0,0,0.36315008,0.8728521,-5.3585521)" />
    <linearGradient
       x1="32.036148"
       y1="19"
       x2="32.036148"
       y2="47.012184"
       id="linearGradient3021"
       xlink:href="#linearGradient3309-1"
       gradientUnits="userSpaceOnUse"
       gradientTransform="matrix(0.77777782,0,0,0.77777782,-12.111112,-13.666669)" />
    <linearGradient
       x1="86.132919"
       y1="105.105"
       x2="84.63858"
       y2="20.895"
       id="linearGradient3017"
       xlink:href="#linearGradient5128"
       gradientUnits="userSpaceOnUse"
       gradientTransform="matrix(0.15623116,0,0,0.15623125,2.0012002,2.157431)" />
    <linearGradient
       x1="12.47939"
       y1="2"
       x2="12.47939"
       y2="22.006775"
       id="linearGradient3014"
       xlink:href="#linearGradient3805"
       gradientUnits="userSpaceOnUse" />
    <linearGradient
       x1="12"
       y1="16"
       x2="12"
       y2="8"
       id="linearGradient3011"
       xlink:href="#linearGradient3805"
       gradientUnits="userSpaceOnUse"
       gradientTransform="matrix(1.0116033,0,0,1.0116033,-0.13923977,-0.1392394)" />
    <linearGradient
       id="linearGradient10691">
      <stop
         id="stop10693"
         style="stop-color:#000000;stop-opacity:1"
         offset="0" />
      <stop
         id="stop10695"
         style="stop-color:#000000;stop-opacity:0"
         offset="1" />
    </linearGradient>
    <linearGradient
       x1="63.9995"
       y1="3.1001"
       x2="63.9995"
       y2="122.8994"
       id="linearGradient3309-1"
       gradientUnits="userSpaceOnUse">
      <stop
         id="stop3311-5"
         style="stop-color:#f6f6f6;stop-opacity:1"
         offset="0" />
      <stop
         id="stop3313-0"
         style="stop-color:#d2d2d2;stop-opacity:1"
         offset="1" />
    </linearGradient>
    <linearGradient
       id="linearGradient5128">
      <stop
         id="stop5130"
         style="stop-color:#ffffff;stop-opacity:1"
         offset="0" />
      <stop
         id="stop5132"
         style="stop-color:#959595;stop-opacity:1"
         offset="1" />
    </linearGradient>
    <linearGradient
       id="linearGradient3805">
      <stop
         id="stop3807"
         style="stop-color:#ffffff;stop-opacity:1"
         offset="0" />
      <stop
         id="stop3809"
         style="stop-color:#ffffff;stop-opacity:0"
         offset="1" />
    </linearGradient>
  </defs>
  <metadata
     id="metadata4036">
    <rdf:RDF>
      <cc:Work
         rdf:about="">
        <dc:format>image/svg+xml</dc:format>
        <dc:type
           rdf:resource="http://purl.org/dc/dcmitype/StillImage" />
        <dc:title />
      </cc:Work>
    </rdf:RDF>
  </metadata>
  <g
     id="layer1">
    <path
       d="m 161.92613,186.17059 a 62.769119,10.461519 0 1 1 -125.538236,0 62.769119,10.461519 0 1 1 125.538236,0 z"
       transform="matrix(0.27083381,0,0,0.52573626,-2.855072,-56.376631)"
       id="path3818-0-5"
       style="fill:url(#radialGradient4029);fill-opacity:1;stroke:none" />
    <path
       d="M 24.000003,3.4999982 C 12.68881,3.4999982 3.4999996,12.688804 3.4999996,23.999998 3.4999996,35.311192 12.68881,44.500003 24.000003,44.5 35.311191,44.5 44.500011,35.311192 44.5,23.999998 44.5,12.688804 35.311191,3.4999982 24.000003,3.4999982 z"
       id="path2555"
       style="color:#000000;fill:url(#radialGradient3117);fill-opacity:1;fill-rule:nonzero;stroke:none;stroke-width:1;marker:none;visibility:visible;display:inline;overflow:visible;enable-background:accumulate" />
    <path
       d="m 43.5,23.999308 c 0,10.7699 -8.73109,19.50069 -19.499753,19.50069 -10.769649,0 -19.5002474,-8.730889 -19.5002474,-19.50069 0,-10.769402 8.7305984,-19.4993078 19.5002474,-19.4993078 C 34.76891,4.5000002 43.5,13.229906 43.5,23.999308 l 0,0 z"
       id="path8655"
       style="opacity:0.5;color:#000000;fill:none;stroke:url(#linearGradient3114);stroke-width:1;stroke-linecap:round;stroke-linejoin:round;stroke-miterlimit:4;stroke-opacity:1;stroke-dasharray:none;stroke-dashoffset:0;marker:none;visibility:visible;display:inline;overflow:visible;enable-background:accumulate" />
    <path
       d="M 21.90625,13.03125 A 0.96812821,0.96812821 0 0 0 21.03125,14 l 0,11.03125 -7.03125,0 a 0.96812821,0.96812821 0 0 0 -0.6875,1.65625 l 10,10 a 0.96812821,0.96812821 0 0 0 1.375,0 l 10,-10 A 0.96812821,0.96812821 0 0 0 34,25.03125 l -7.03125,0 0,-11.03125 A 0.96812821,0.96812821 0 0 0 26,13.03125 l -4,0 a 0.96812821,0.96812821 0 0 0 -0.09375,0 z"
       id="path3993"
       style="opacity:0.05;color:#000000;fill:#000000;fill-opacity:1;fill-rule:nonzero;stroke:none;stroke-width:1;marker:none;visibility:visible;display:inline;overflow:visible;enable-background:accumulate" />
    <path
       d="m 22,14 0,12 -8,0 10,10 10,-10 -8,0 0,-12 z"
       id="rect3005-5-7"
       style="opacity:0.15;color:#000000;fill:#000000;fill-opacity:1;fill-rule:nonzero;stroke:none;stroke-width:1;marker:none;visibility:visible;display:inline;overflow:visible;enable-background:accumulate" />
    <path
       d="m 22,13 0,12 -8,0 10,10 10,-10 -8,0 0,-12 z"
       id="rect3005-5"
       style="color:#000000;fill:#ffffff;fill-opacity:1;fill-rule:nonzero;stroke:none;stroke-width:1;marker:none;visibility:visible;display:inline;overflow:visible;enable-background:accumulate" />
    <path
       d="m 24.000003,3.499998 c -11.311193,0 -20.5000034,9.188806 -20.5000034,20.5 0,11.311194 9.1888104,20.500005 20.5000034,20.500002 11.311188,0 20.500008,-9.188808 20.499997,-20.500002 0,-11.311194 -9.188809,-20.5 -20.499997,-20.5 z"
       id="path2555-6"
       style="opacity:0.5;color:#000000;fill:#000000;fill-opacity:0;fill-rule:nonzero;stroke:#00537d;stroke-width:1;stroke-linecap:round;stroke-linejoin:round;stroke-miterlimit:4;stroke-opacity:1;stroke-dasharray:none;stroke-dashoffset:0;marker:none;visibility:visible;display:inline;overflow:visible;enable-background:accumulate" />
  </g>
  <g
     transform="translate(24.000135,24)"
     id="g3086">
    <path
       d="M 23.999865,21.375 C 23.999865,22.824748 18.627342,24 12,24 5.3726571,24 1.348125e-4,22.824748 1.348125e-4,21.375 1.348125e-4,19.925253 5.3726571,18.75 12,18.75 c 6.627342,0 11.999865,1.175253 11.999865,2.625 z"
       id="path10689"
       style="opacity:0.2;fill:url(#radialGradient3026);fill-opacity:1;fill-rule:nonzero;stroke:none;stroke-width:0.80000001;marker:none;visibility:visible;display:inline;overflow:visible" />
    <path
       d="m 10.5,1.5 c -0.554,0 -1,0.446 -1,1 l 0,1.375 C 8.9926705,4.030783 8.4932312,4.225474 8.03125,4.46875 L 7.0625,3.5 C 6.6707628,3.108263 6.0167372,3.108263 5.625,3.5 L 3.5,5.625 C 3.1082628,6.016737 3.1082628,6.670763 3.5,7.0625 L 4.46875,8.03125 C 4.2254741,8.493231 4.0307828,8.99267 3.875,9.5 L 2.5,9.5 c -0.554,0 -1,0.446 -1,1 l 0,3 c 0,0.554 0.446,1 1,1 l 1.375,0 c 0.1557828,0.507329 0.3504741,1.006769 0.59375,1.46875 L 3.5,16.9375 c -0.3917372,0.391737 -0.3917372,1.045763 0,1.4375 L 5.625,20.5 c 0.3917372,0.391737 1.0457628,0.391737 1.4375,0 L 8.03125,19.53125 C 8.4932312,19.774526 8.9926705,19.969217 9.5,20.125 l 0,1.375 c 0,0.554 0.446,1 1,1 l 3,0 c 0.554,0 1,-0.446 1,-1 l 0,-1.375 c 0.507329,-0.155783 1.006769,-0.350474 1.46875,-0.59375 L 16.9375,20.5 c 0.391737,0.391737 1.045763,0.391737 1.4375,0 L 20.5,18.375 c 0.391737,-0.391737 0.391737,-1.045763 0,-1.4375 L 19.53125,15.96875 C 19.774526,15.506769 19.969217,15.007329 20.125,14.5 l 1.375,0 c 0.554,0 1,-0.446 1,-1 l 0,-3 c 0,-0.554 -0.446,-1 -1,-1 l -1.375,0 C 19.969217,8.99267 19.774526,8.493231 19.53125,8.03125 L 20.5,7.0625 c 0.391737,-0.391737 0.391737,-1.045763 0,-1.4375 L 18.375,3.5 C 17.983263,3.108263 17.329237,3.108263 16.9375,3.5 L 15.96875,4.46875 C 15.506769,4.225474 15.007329,4.030783 14.5,3.875 l 0,-1.375 c 0,-0.554 -0.446,-1 -1,-1 l -3,0 z m 1.5,8 c 1.380712,0 2.5,1.119288 2.5,2.5 0,1.380712 -1.119288,2.5 -2.5,2.5 -1.380712,0 -2.5,-1.119288 -2.5,-2.5 0,-1.380712 1.119288,-2.5 2.5,-2.5 z"
       id="rect3623"
       style="color:#000000;fill:url(#linearGradient3021);fill-opacity:1;fill-rule:nonzero;stroke:none;stroke-width:1;marker:none;visibility:visible;display:block;overflow:visible;enable-background:accumulate" />
    <path
       d="m 12,6 c -3.310303,0 -6,2.689698 -6,6 0,3.310302 2.689697,6 6,6 3.310301,0 6,-2.689698 6,-6 0,-3.310302 -2.689699,-6 -6,-6 z m 0,3 c 1.656854,0 3,1.343146 3,3 0,1.656854 -1.343146,3 -3,3 -1.656854,0 -3,-1.343146 -3,-3 0,-1.656854 1.343146,-3 3,-3 z"
       id="path3315"
       style="opacity:0.05;fill:#000000;fill-opacity:1;stroke:none" />
    <path
       d="m 12,5.499999 c -3.5841018,0 -6.5,2.9159 -6.5,6.499999 C 5.5,15.5841 8.4158982,18.5 12,18.5 c 3.584101,0 6.5,-2.9159 6.5,-6.500002 0,-3.584099 -2.915899,-6.499999 -6.5,-6.499999 z"
       id="path28"
       style="fill:none;stroke:url(#linearGradient3017);stroke-width:1;stroke-miterlimit:4;stroke-dasharray:none" />
    <path
       d="M 10.5,2.46875 C 10.42583,2.857469 10.4905,3.369858 10.46875,3.805183 10.53344,4.583262 9.6984733,4.858037 9.1004648,5.021793 8.5534413,5.333029 7.7514701,5.693691 7.2634975,5.075993 6.9673317,4.779832 6.6711658,4.483666 6.375,4.1875 5.9432707,4.474172 5.5902425,4.950845 5.1889654,5.311035 4.8695012,5.671637 4.4334278,5.983938 4.1875,6.375 4.5945204,6.865131 5.2360159,7.212591 5.413298,7.851969 5.388634,8.650433 4.8731381,9.381187 4.6009101,10.118994 4.0990892,10.683344 3.2858688,10.399662 2.6265645,10.46875 2.2819972,10.45587 2.5562355,11.055097 2.46875,11.294459 c 0.00121,0.744981 -0.0024,1.490108 0.00179,2.234998 0.6455598,0.06419 1.3569859,-0.150581 1.9454937,0.179668 0.5556121,0.579212 0.6756354,1.474124 1.0067725,2.188766 0.04177,0.75274 -0.7323134,1.126431 -1.1493366,1.641136 -0.2173877,0.272406 0.385277,0.504146 0.5159207,0.750367 0.5077022,0.507702 1.0154043,1.015404 1.5231065,1.523106 0.5224633,-0.304869 0.8397278,-0.98896 1.4454346,-1.204942 0.8151392,-0.106648 1.5136871,0.546448 2.2838276,0.733976 0.650694,0.452082 0.363529,1.310427 0.426988,1.975154 -0.08851,0.418476 0.527859,0.12987 0.768962,0.214562 0.763896,-0.0012 1.527939,0.0024 2.291745,-0.0018 0.06419,-0.64556 -0.150581,-1.356986 0.179668,-1.945494 0.579212,-0.555612 1.474124,-0.675635 2.188766,-1.006772 0.75274,-0.04177 1.126431,0.732313 1.641136,1.149336 0.272406,0.217388 0.504146,-0.385277 0.750367,-0.515921 0.507702,-0.507702 1.015404,-1.015404 1.523106,-1.523106 -0.304869,-0.522463 -0.98896,-0.839728 -1.204942,-1.445435 -0.106648,-0.815139 0.546448,-1.513687 0.733976,-2.283827 0.452082,-0.650694 1.310427,-0.363529 1.975154,-0.426988 0.418476,0.08851 0.12987,-0.527859 0.214562,-0.768962 -0.0012,-0.763896 0.0024,-1.527939 -0.0018,-2.291745 -0.64556,-0.06419 -1.356986,0.150581 -1.945494,-0.179668 C 19.028351,9.711663 18.908328,8.816751 18.577191,8.102109 18.535421,7.349369 19.309504,6.975678 19.726527,6.460973 19.943915,6.188567 19.34125,5.956827 19.210606,5.710607 18.702904,5.202904 18.195202,4.695202 17.6875,4.1875 17.165037,4.492369 16.847772,5.17646 16.242065,5.392442 15.426926,5.49909 14.728378,4.845994 13.958238,4.658466 13.307544,4.206384 13.594709,3.348039 13.53125,2.683312 13.61976,2.264836 13.003391,2.553442 12.762288,2.46875 c -0.754096,0 -1.508192,0 -2.262288,0 z"
       id="path3799"
       style="opacity:0.8;color:#000000;fill:none;stroke:url(#linearGradient3014);stroke-width:1;stroke-linecap:butt;stroke-linejoin:round;stroke-miterlimit:4;stroke-opacity:1;stroke-dasharray:none;stroke-dashoffset:0;marker:none;visibility:visible;display:block;overflow:visible;enable-background:accumulate" />
    <path
       d="m 15.5,12 a 3.5,3.5 0 1 1 -7,0 3.5,3.5 0 1 1 7,0 z"
       id="path3822"
       style="opacity:0.4;color:#000000;fill:none;stroke:url(#linearGradient3011);stroke-width:0.99999994;stroke-opacity:1;marker:none;visibility:visible;display:block;overflow:visible;enable-background:accumulate" />
    <path
       d="m 10.5,1.5 c -0.554,0 -1,0.446 -1,1 l 0,1.375 C 8.9926705,4.030783 8.4932312,4.225474 8.03125,4.46875 L 7.0625,3.5 C 6.6707628,3.108263 6.0167372,3.108263 5.625,3.5 L 3.5,5.625 C 3.1082628,6.016737 3.1082628,6.670763 3.5,7.0625 L 4.46875,8.03125 C 4.2254741,8.493231 4.0307828,8.99267 3.875,9.5 L 2.5,9.5 c -0.554,0 -1,0.446 -1,1 l 0,3 c 0,0.554 0.446,1 1,1 l 1.375,0 c 0.1557828,0.507329 0.3504741,1.006769 0.59375,1.46875 L 3.5,16.9375 c -0.3917372,0.391737 -0.3917372,1.045763 0,1.4375 L 5.625,20.5 c 0.3917372,0.391737 1.0457628,0.391737 1.4375,0 L 8.03125,19.53125 C 8.4932312,19.774526 8.9926705,19.969217 9.5,20.125 l 0,1.375 c 0,0.554 0.446,1 1,1 l 3,0 c 0.554,0 1,-0.446 1,-1 l 0,-1.375 c 0.507329,-0.155783 1.006769,-0.350474 1.46875,-0.59375 L 16.9375,20.5 c 0.391737,0.391737 1.045763,0.391737 1.4375,0 L 20.5,18.375 c 0.391737,-0.391737 0.391737,-1.045763 0,-1.4375 L 19.53125,15.96875 C 19.774526,15.506769 19.969217,15.007329 20.125,14.5 l 1.375,0 c 0.554,0 1,-0.446 1,-1 l 0,-3 c 0,-0.554 -0.446,-1 -1,-1 l -1.375,0 C 19.969217,8.99267 19.774526,8.493231 19.53125,8.03125 L 20.5,7.0625 c 0.391737,-0.391737 0.391737,-1.045763 0,-1.4375 L 18.375,3.5 C 17.983263,3.108263 17.329237,3.108263 16.9375,3.5 L 15.96875,4.46875 C 15.506769,4.225474 15.007329,4.030783 14.5,3.875 l 0,-1.375 c 0,-0.554 -0.446,-1 -1,-1 l -3,0 z m 1.5,8 c 1.380712,0 2.5,1.119288 2.5,2.5 0,1.380712 -1.119288,2.5 -2.5,2.5 -1.380712,0 -2.5,-1.119288 -2.5,-2.5 0,-1.380712 1.119288,-2.5 2.5,-2.5 z"
       id="rect3623-2"
       style="opacity:0.3;color:#000000;fill:none;stroke:#000000;stroke-width:1;stroke-linecap:butt;stroke-linejoin:round;stroke-miterlimit:4;stroke-opacity:1;stroke-dasharray:none;stroke-dashoffset:0;marker:none;visibility:visible;display:block;overflow:visible;enable-background:accumulate" />
  </g>
</svg>

<svg xmlns="http://www.w3.org/2000/svg" xmlns:xlink="http://www.w3.org/1999/xlink" width="48" height="48"><defs><linearGradient x1="71.204" y1="6.238" x2="71.204" y2="44.341" id="j" xlink:href="#a" gradientUnits="userSpaceOnUse" gradientTransform="translate(-51.61 -2.728) scale(1.05405)"/><linearGradient id="a"><stop offset="0" stop-color="#fff"/><stop offset=".508" stop-color="#fff" stop-opacity=".235"/><stop offset=".835" stop-color="#fff" stop-opacity=".157"/><stop offset="1" stop-color="#fff" stop-opacity=".392"/></linearGradient><radialGradient cx="3.972" cy="8.45" r="20" fx="3.972" fy="8.45" id="i" xlink:href="#b" gradientUnits="userSpaceOnUse" gradientTransform="matrix(0 2.49883 -2.64347 0 46.337 -12.18)"/><linearGradient id="b"><stop offset="0" stop-color="#90dbec"/><stop offset=".262" stop-color="#42baea"/><stop offset=".705" stop-color="#3689e6"/><stop offset="1" stop-color="#2b63a0"/></linearGradient><linearGradient id="c"><stop offset="0" stop-color="#3d3d3d"/><stop offset=".5" stop-color="#686868" stop-opacity=".498"/><stop offset="1" stop-color="#686868" stop-opacity="0"/></linearGradient><radialGradient cx="99.157" cy="186.171" r="62.769" fx="99.157" fy="186.171" id="h" xlink:href="#c" gradientUnits="userSpaceOnUse" gradientTransform="matrix(1 0 0 .16667 0 155.142)"/><radialGradient cx="6.703" cy="73.616" r="7.228" fx="6.703" fy="73.616" id="k" xlink:href="#d" gradientUnits="userSpaceOnUse" gradientTransform="matrix(1.6601 0 0 .36315 .873 -5.36)"/><linearGradient x1="32.036" y1="19" x2="32.036" y2="47.012" id="l" xlink:href="#e" gradientUnits="userSpaceOnUse" gradientTransform="translate(-12.11 -13.667) scale(.77778)"/><linearGradient x1="86.133" y1="105.105" x2="84.639" y2="20.895" id="m" xlink:href="#f" gradientUnits="userSpaceOnUse" gradientTransform="translate(2 2.157) scale(.15623)"/><linearGradient x1="12.479" y1="2" x2="12.479" y2="22.007" id="n" xlink:href="#g" gradientUnits="userSpaceOnUse"/><linearGradient x1="12" y1="16" x2="12" y2="8" id="o" xlink:href="#g" gradientUnits="userSpaceOnUse" gradientTransform="translate(-.14 -.14) scale(1.0116)"/><linearGradient id="d"><stop offset="0"/><stop offset="1" stop-opacity="0"/></linearGradient><linearGradient x1="63.999" y1="3.1" x2="63.999" y2="122.899" id="e" gradientUnits="userSpaceOnUse"><stop offset="0" stop-color="#f6f6f6"/><stop offset="1" stop-color="#d2d2d2"/></linearGradient><linearGradient id="f"><stop offset="0" stop-color="#fff"/><stop offset="1" stop-color="#959595"/></linearGradient><linearGradient id="g"><stop offset="0" stop-color="#fff"/><stop offset="1" stop-color="#fff" stop-opacity="0"/></linearGradient></defs><path d="M161.926 186.17a62.77 10.462 0 1 1-125.538 0 62.77 10.462 0 1 1 125.538 0z" transform="matrix(.27083 0 0 .52574 -2.855 -56.377)" fill="url(#h)"/><path d="M24 3.5C12.69 3.5 3.5 12.69 3.5 24S12.69 44.5 24 44.5 44.5 35.31 44.5 24 35.31 3.5 24 3.5z" color="#000" fill="url(#i)" overflow="visible"/><path d="M43.5 24c0 10.77-8.73 19.5-19.5 19.5S4.5 34.77 4.5 24 13.23 4.5 24 4.5 43.5 13.23 43.5 24z" opacity=".5" color="#000" fill="none" stroke="url(#j)" stroke-linecap="round" stroke-linejoin="round" overflow="visible"/><path d="M21.906 13.03a.968.968 0 0 0-.875.97v11.03H14a.968.968 0 0 0-.688 1.657l10 10a.968.968 0 0 0 1.375 0l10-10A.968.968 0 0 0 34 25.032h-7.03V14a.968.968 0 0 0-.97-.97h-4a.968.968 0 0 0-.094 0z" opacity=".05" color="#000" overflow="visible"/><path d="M22 14v12h-8l10 10 10-10h-8V14z" opacity=".15" color="#000" overflow="visible"/><path d="M22 13v12h-8l10 10 10-10h-8V13z" color="#000" fill="#fff" overflow="visible"/><path d="M24 3.5C12.69 3.5 3.5 12.69 3.5 24S12.69 44.5 24 44.5 44.5 35.31 44.5 24 35.31 3.5 24 3.5z" opacity=".5" color="#000" stroke="#00537d" stroke-linecap="round" stroke-linejoin="round" overflow="visible" fill="none"/><path d="M24 21.375C24 22.825 18.627 24 12 24S0 22.825 0 21.375s5.373-2.625 12-2.625 12 1.175 12 2.625z" opacity=".2" fill="url(#k)" overflow="visible" transform="translate(24 24)"/><path d="M10.5 1.5c-.554 0-1 .446-1 1v1.375a8.545 8.545 0 0 0-1.47.594l-.967-.97a1.026 1.026 0 0 0-1.438 0L3.5 5.62a1.026 1.026 0 0 0 0 1.438l.97.97a8.47 8.47 0 0 0-.595 1.47H2.5c-.554 0-1 .446-1 1v3c0 .554.446 1 1 1h1.375c.156.507.35 1.007.594 1.47l-.97.967a1.026 1.026 0 0 0 0 1.438L5.62 20.5a1.026 1.026 0 0 0 1.438 0l.97-.97c.463.245.963.44 1.47.595V21.5c0 .554.446 1 1 1h3c.554 0 1-.446 1-1v-1.375a8.545 8.545 0 0 0 1.47-.594l.967.97a1.026 1.026 0 0 0 1.438 0l2.125-2.12a1.026 1.026 0 0 0 0-1.433l-.97-.97a8.41 8.41 0 0 0 .597-1.47H21.5c.554 0 1-.445 1-1v-3c0-.553-.446-1-1-1h-1.375a8.545 8.545 0 0 0-.594-1.47l.97-.966a1.026 1.026 0 0 0 0-1.44L18.38 3.5a1.026 1.026 0 0 0-1.438 0l-.97.97a8.545 8.545 0 0 0-1.47-.595V2.5c0-.554-.446-1-1-1h-3zm1.5 8a2.5 2.5 0 1 1 0 5 2.5 2.5 0 0 1 0-5z" color="#000" fill="url(#l)" display="block" overflow="visible" transform="translate(24 24)"/><path d="M36 30c-3.31 0-6 2.69-6 6s2.69 6 6 6 6-2.69 6-6-2.69-6-6-6zm0 3a3 3 0 1 1 0 6 3 3 0 0 1 0-6z" opacity=".05"/><path d="M12 5.5A6.507 6.507 0 0 0 5.5 12c0 3.584 2.916 6.5 6.5 6.5s6.5-2.916 6.5-6.5-2.916-6.5-6.5-6.5z" fill="none" stroke="url(#m)" transform="translate(24 24)"/><path d="M10.5 2.47c-.074.387-.01.9-.03 1.335.063.778-.772 1.053-1.37 1.217-.547.31-1.35.672-1.837.054l-.888-.888c-.432.286-.785.763-1.186 1.123-.32.37-.76.68-1.01 1.07.41.49 1.05.84 1.224 1.48-.024.8-.54 1.53-.81 2.268-.5.564-1.316.28-1.975.35-.345-.013-.07.586-.158.825 0 .745-.005 1.49 0 2.235.645.063 1.357-.15 1.945.18.555.577.675 1.472 1.006 2.187.04.754-.734 1.127-1.15 1.64-.218.274.385.506.515.75l1.52 1.524c.523-.306.84-.99 1.446-1.206.814-.11 1.513.545 2.283.733.65.454.363 1.31.427 1.977-.09.416.528.13.77.212.763 0 1.527.005 2.29 0 .065-.645-.15-1.357.18-1.945.58-.556 1.474-.676 2.19-1.007.752-.044 1.125.73 1.64 1.15.272.215.504-.388.75-.518.51-.506 1.016-1.014 1.523-1.522-.304-.52-.99-.84-1.204-1.444-.106-.817.547-1.516.735-2.286.45-.65 1.31-.36 1.976-.425.417.09.13-.528.213-.77 0-.763.003-1.527 0-2.29-.647-.065-1.36.15-1.947-.18-.556-.58-.676-1.474-1.007-2.19-.04-.752.735-1.125 1.15-1.64.22-.272-.384-.504-.514-.75-.508-.51-1.016-1.016-1.524-1.523-.52.305-.84.99-1.447 1.205-.814.11-1.513-.543-2.283-.73-.65-.45-.36-1.31-.425-1.975.09-.416-.527-.13-.768-.212H10.5z" opacity=".8" color="#000" fill="none" stroke="url(#n)" stroke-linejoin="round" display="block" overflow="visible" transform="translate(24 24)"/><path d="M15.5 12a3.5 3.5 0 1 1-7 0 3.5 3.5 0 1 1 7 0z" opacity=".4" color="#000" fill="none" stroke="url(#o)" display="block" overflow="visible" transform="translate(24 24)"/><path d="M34.5 25.5c-.554 0-1 .446-1 1v1.375a8.545 8.545 0 0 0-1.47.594l-.968-.97a1.026 1.026 0 0 0-1.437 0L27.5 29.62a1.026 1.026 0 0 0 0 1.438l.97.97a8.47 8.47 0 0 0-.595 1.47H26.5c-.554 0-1 .446-1 1v3c0 .554.446 1 1 1h1.375c.156.507.35 1.007.594 1.47l-.97.97a1.026 1.026 0 0 0 0 1.435l2.12 2.125a1.026 1.026 0 0 0 1.433 0l.97-.97c.462.247.962.44 1.47.597V45.5c0 .554.445 1 1 1h3c.553 0 1-.446 1-1v-1.375a8.545 8.545 0 0 0 1.47-.594l.967.97a1.026 1.026 0 0 0 1.438 0l2.13-2.12a1.026 1.026 0 0 0 0-1.433l-.97-.97a8.34 8.34 0 0 0 .59-1.47h1.38c.554 0 1-.445 1-1v-3c0-.553-.446-1-1-1h-1.375a8.545 8.545 0 0 0-.594-1.47l.97-.967a1.026 1.026 0 0 0 0-1.438l-2.12-2.13a1.026 1.026 0 0 0-1.438 0l-.97.97a8.545 8.545 0 0 0-1.47-.594V26.5c0-.554-.446-1-1-1h-3zm1.5 8a2.5 2.5 0 1 1 0 5 2.5 2.5 0 0 1 0-5z" opacity=".3" color="#000" fill="none" stroke="#000" stroke-linejoin="round" display="block" overflow="visible"/></svg>
